icons/linear-ele-container-shopping-cart-full.svg

<svg xmlns="http://www.w3.org/2000/svg" width="32px" height="32px" viewBox="0 0 32 32" version="1.1">
    <title>linear-ele-container-shopping-cart-full</title>
    <g id="linear-ele-container-shopping-cart-full" stroke-width="1" fill-rule="evenodd">
        <path d="M8,2 C8.47668102,2 8.88709584,2.33645967 8.98058068,2.80388386 L10.019,8 L13.584,8 L18.2928932,3.29289322 C18.6834175,2.90236893 19.3165825,2.90236893 19.7071068,3.29289322 L24.415,8 L29,8 C29.5968539,8 30.0512455,8.51593278 29.9957985,9.09335865 L29.9778024,9.20952909 L26.9778024,23.2095291 C26.8790015,23.6705999 26.4715378,24 26,24 L12,24 C11.523319,24 11.1129042,23.6635403 11.0194193,23.1961161 L7.18,4 L3,4 C2.48716416,4 2.06449284,3.61395981 2.00672773,3.11662113 L2,3 C2,2.44771525 2.44771525,2 3,2 L8,2 Z M27.763,10 L10.419,10 L12.819,22 L25.191,22 L27.763,10 Z M21.585,8 L19,5.415 L16.414,8 L21.585,8 Z M13.5,29 C14.3284271,29 15,28.3284271 15,27.5 C15,26.6715729 14.3284271,26 13.5,26 C12.6715729,26 12,26.6715729 12,27.5 C12,28.3284271 12.6715729,29 13.5,29 Z M23.5,29 C24.3284271,29 25,28.3284271 25,27.5 C25,26.6715729 24.3284271,26 23.5,26 C22.6715729,26 22,26.6715729 22,27.5 C22,28.3284271 22.6715729,29 23.5,29 Z" id="&#24418;&#29366;" fill-rule="nonzero" />
    </g>
</svg>

<svg xmlns="http://www.w3.org/2000/svg" viewBox="0 0 32 32"><path fill="currentColor" d="M8 2a1 1 0 0 1 .98.804L10.02 8h3.565l4.709-4.707a1 1 0 0 1 1.414 0L24.415 8H29a1 1 0 0 1 .996 1.093l-.018.117-3 14A1 1 0 0 1 26 24H12a1 1 0 0 1-.98-.804L7.18 4H3a1 1 0 0 1-.993-.883L2 3a1 1 0 0 1 1-1zm19.763 8H10.419l2.4 12h12.372zm-6.178-2L19 5.415 16.414 8zM13.5 29a1.5 1.5 0 1 0 0-3 1.5 1.5 0 0 0 0 3m10 0a1.5 1.5 0 1 0 0-3 1.5 1.5 0 0 0 0 3"/></svg>
